X: 102
T: Missa O salutaris hostia / Agnus Dei
N: Derived from Rue1022e-Missa_O_salutaris_hostia-Agnus.krn
C: Pierre de la Rue
%%abc-version 2.0
%%abcx-abcm2ps-target-version 5.9.1 (29 Sep 2008)
%%abc-creator hum2abc beta
%%abcx-conversion-date 2019/02/17 08:01:14
%%abc-edited-by Jesse Rodin
%%abc-edited-by Chris Gage 04-15-2013
%%abcx-initial-encoding-date 2013/07/28/
%%humdrum-veritas 3928772878
%%humdrum-veritas-data 2302856354
%%linebreak <none>
%%barnumbers 0
L: 1/4
M: 3/1
Q: 1/2=120
%%staves [1 2 3 4]
V: 1 clef=treble
V: 2 clef=treble-8
V: 3 clef=treble-8
V: 4 clef=bass
K: F
[V:1] z12 | 
[V:2] z12 | 
[V:3] G4G2A4GF | 
[V:4] z12 | 
[V:1] z12 | 
[V:2] z12 | 
[V:3] E2G4D2F2G2 | 
[V:4] C,4C,2D,4C,B,, | 
[V:1] z12 | 
[V:2] z12 | 
[V:3] A3Bc2d4cB | 
[V:4] A,,2C,4G,,2B,,2C,2 | 
[V:1] z12 | 
[V:2] z12 | 
[V:3] A4z4z2A2 | 
[V:4] D,3E,F,2G,4F,E, | 
[V:1] z12 | 
[V:2] z12 | 
[V:3] B2d4cBA4 | 
[V:4] D,4z4z2D,2 | 
[V:1] G4G2A4GF | 
[V:2] z12 | 
[V:3] G3AB2c4=B2 | 
[V:4] E,2G,4F,E,D,4 | 
[V:1] E2G4D2F2G2 | 
[V:2] c4c2d4cB | 
[V:3] c4z4z4 | 
[V:4] C,3D,E,2F,4E,2 | 
[V:1] A3Bc2d4cB | 
[V:2] A2c4G2B2c2 | 
[V:3] z12 | 
[V:4] F,4z4z4 | 
[V:1] A4z4z2A2 | 
[V:2] d3ef2g4fe | 
[V:3] z12 | 
[V:4] z12 | 
[V:1] B2d4cBA4 | 
[V:2] d4z4z2d2 | 
[V:3] z12 | 
[V:4] z12 | 
[V:1] G3AB2c4=B2 | 
[V:2] e2g4fed4 | 
[V:3] z4z4G4 | 
[V:4] z12 | 
[V:1] c4z4z4 | 
[V:2] c3de2f4e2 | 
[V:3] A2A4F2G2A2 | 
[V:4] z4z4C,4 | 
[V:1] z12 | 
[V:2] f4z4z4 | 
[V:3] D4z2D2E2F2 | 
[V:4] D,2D,4B,,2C,2D,2 | 
[V:1] z12 | 
[V:2] z12 | 
[V:3] G2FED4z2D2 | 
[V:4] G,,4z2G,,2A,,2B,,2 | 
[V:1] z12 | 
[V:2] z12 | 
[V:3] E2F2G2E2D4 | 
[V:4] C,2B,,A,,G,,4z2G,,2 | 
[V:1] z4z4G4 | 
[V:2] z12 | 
[V:3] C3DECF4E2 | 
[V:4] A,,2B,,2C,2A,,2G,,4 | 
[V:1] A2A4F2G2A2 | 
[V:2] z4z4c4 | 
[V:3] F8z4 | 
[V:4] F,,3G,,A,,F,,B,,4A,,2 | 
[V:1] D4z2D2E2F2 | 
[V:2] d2d4B2c2d2 | 
[V:3] z12 | 
[V:4] B,,8z4 | 
[V:1] G2FED4z2D2 | 
[V:2] G4z2G2A2B2 | 
[V:3] z12 | 
[V:4] z12 | 
[V:1] E2F2G2E2D4 | 
[V:2] c2BAG4z2G2 | 
[V:3] z12 | 
[V:4] z12 | 
[V:1] C3DECF4E2 | 
[V:2] A2B2c2A2G4 | 
[V:3] z12 | 
[V:4] z12 | 
[V:1] F8z4 | 
[V:2] F3GAFB4A2 | 
[V:3] F2F4D2_E4 | 
[V:4] z12 | 
[V:1] z12 | 
[V:2] B8z4 | 
[V:3] D3_EF2G2^F=E^F2 | 
[V:4] B,,2B,,4G,,2A,,4 | 
[V:1] z12 | 
[V:2] z12 | 
[V:3] G6E2F2D2 | 
[V:4] G,,3A,,B,,2C,2B,,A,,B,,2 | 
[V:1] z12 | 
[V:2] z12 | 
[V:3] CDEFG2A2GFG2 | 
[V:4] C,6A,,2B,,2G,,2 | 
[V:1] z12 | 
[V:2] z12 | 
[V:3] A6F2G4 | 
[V:4] F,,G,,A,,B,,C,2D,2C,B,,C,2 | 
[V:1] F2F4D2_E4 | 
[V:2] z12 | 
[V:3] F3GA2B2A4 | 
[V:4] D,6B,,2C,4 | 
[V:1] D3_EF2G2^F=EF2 | 
[V:2] B2B4G2A4 | 
[V:3] D4z4z4 | 
[V:4] B,,3C,D,2_E,2D,4 | 
[V:1] G6E2F2D2 | 
[V:2] G3AB2c2BAB2 | 
[V:3] z4z2c2d4 | 
[V:4] G,,4z4z4 | 
[V:1] CDEFG2A2GFG2 | 
[V:2] c6A2B2G2 | 
[V:3] A2c4c2B4 | 
[V:4] z4z2F,2G,4 | 
[V:1] A6F2G4 | 
[V:2] FGABc2d2^c=B^c2 | 
[V:3] A8z2G2 | 
[V:4] D,2F,4F,2E,4 | 
[V:1] F12- | 
[V:2] d12- | 
[V:3] A2B4A2F3G | 
[V:4] D,12- | 
[V:1] F12 ||  
[V:2] d12 ||  
[V:3] A12 ||  
[V:4] D,12 ||  
[V:1]  [K:F] [K:clef=treble][M:2/1]A4A2F2- | 
[V:2]  [K:F] [K:clef=treble-8][M:2/1]z8 | 
[V:3]  [K:F] [K:clef=treble-8][M:2/1]z8 | 
[V:4]  [K:F] [K:clef=bass][M:2/1]z8 | 
[V:1] F2EDE4 | 
[V:2] z8 | 
[V:3] z8 | 
[V:4] z8 | 
[V:1] D3EF2G2 | 
[V:2] d4d2B2- | 
[V:3] z8 | 
[V:4] z8 | 
[V:1] D2G4^F2 | 
[V:2] B2AGA4 | 
[V:3] z8 | 
[V:4] z8 | 
[V:1] G4z2G2 | 
[V:2] G3AB2c2 | 
[V:3] z8 | 
[V:4] z8 | 
[V:1] G2E2F4 | 
[V:2] G2c4B2 | 
[V:3] z8 | 
[V:4] z8 | 
[V:1] E3FG2A2 | 
[V:2] c4z2c2 | 
[V:3] z8 | 
[V:4] z8 | 
[V:1] E2A4G2 | 
[V:2] c2A2B4 | 
[V:3] z8 | 
[V:4] z8 | 
[V:1] A2c3BA2- | 
[V:2] A3Bc2d2 | 
[V:3] A4A2F2- | 
[V:4] z8 | 
[V:1] A2GFG4 | 
[V:2] A2d4^c2 | 
[V:3] F2EDE4 | 
[V:4] z8 | 
[V:1] F4z4 | 
[V:2] d2f3ed2- | 
[V:3] D3EF2G2 | 
[V:4] D,4D,2B,,2- | 
[V:1] z8 | 
[V:2] d2cBc4 | 
[V:3] D2G4^F2 | 
[V:4] B,,2A,,G,,A,,4 | 
[V:1] z8 | 
[V:2] B4z4 | 
[V:3] G4z2G2 | 
[V:4] G,,3A,,B,,2C,2 | 
[V:1] z8 | 
[V:2] z8 | 
[V:3] G2E2F4 | 
[V:4] G,,2C,4B,,2 | 
[V:1] z8 | 
[V:2] z8 | 
[V:3] E3FG2A2 | 
[V:4] C,4z2C,2 | 
[V:1] z8 | 
[V:2] z8 | 
[V:3] E2A4G2 | 
[V:4] C,2A,,2B,,4 | 
[V:1] z8 | 
[V:2] z8 | 
[V:3] A2c3BA2- | 
[V:4] A,,3B,,C,2D,2 | 
[V:1] z2F4E2 | 
[V:2] z8 | 
[V:3] A2GFG4 | 
[V:4] A,,2D,4C,2 | 
[V:1] F2A3GF2- | 
[V:2] z8 | 
[V:3] F4z4 | 
[V:4] D,2F,3E,D,2- | 
[V:1] F2_EDE4 | 
[V:2] z2B4A2 | 
[V:3] z8 | 
[V:4] D,2C,B,,C,4 | 
[V:1] D8 | 
[V:2] B2d3cB2- | 
[V:3] z8 | 
[V:4] B,,4z4 | 
[V:1] z4A4 | 
[V:2] B2AGA4 | 
[V:3] z8 | 
[V:4] z8 | 
[V:1] B2B2B2G2- | 
[V:2] G8 | 
[V:3] z8 | 
[V:4] z8 | 
[V:1] G2FED4 | 
[V:2] z4d4 | 
[V:3] z8 | 
[V:4] z8 | 
[V:1] C8 | 
[V:2] e2e2e2c2- | 
[V:3] z8 | 
[V:4] z8 | 
[V:1] z8 | 
[V:2] c2BAG4 | 
[V:3] z2F4E2 | 
[V:4] z8 | 
[V:1] z8 | 
[V:2] F8 | 
[V:3] F2A3GF2- | 
[V:4] z8 | 
[V:1] z8 | 
[V:2] z8 | 
[V:3] F2_ED_E4 | 
[V:4] z2B,,4A,,2 | 
[V:1] z8 | 
[V:2] z8 | 
[V:3] D8 | 
[V:4] B,,2D,3C,B,,2- | 
[V:1] z8 | 
[V:2] z8 | 
[V:3] z4A4 | 
[V:4] B,,2A,,G,,A,,4 | 
[V:1] G8 | 
[V:2] z8 | 
[V:3] B2B2B2G2- | 
[V:4] G,,8 | 
[V:1] G4F4 | 
[V:2] z8 | 
[V:3] G2FED4 | 
[V:4] z4D,4 | 
[V:1] G4G4- | 
[V:2] c8 | 
[V:3] C8 | 
[V:4] E,2E,2E,2C,2- | 
[V:1] G2A2B4 | 
[V:2] c4B4 | 
[V:3] z8 | 
[V:4] C,2B,,A,,G,,4 | 
[V:1] A3BcAc2- | 
[V:2] c4c4- | 
[V:3] z8 | 
[V:4] F,,8 | 
[V:1] c2BAG4 | 
[V:2] c2d2e4 | 
[V:3] z8 | 
[V:4] z8 | 
[V:1] F3GAFA2- | 
[V:2] d3efdf2- | 
[V:3] z8 | 
[V:4] z8 | 
[V:1] A2GFE4 | 
[V:2] f2edc4 | 
[V:3] z8 | 
[V:4] z8 | 
[V:1] D8 | 
[V:2] B3cdBd2- | 
[V:3] G8 | 
[V:4] z8 | 
[V:1] z8 | 
[V:2] d2cBA4 | 
[V:3] G4F4 | 
[V:4] z8 | 
[V:1] z8 | 
[V:2] G8 | 
[V:3] G4G4- | 
[V:4] C,8 | 
[V:1] z8 | 
[V:2] z8 | 
[V:3] G2A2B4 | 
[V:4] C,4B,,4 | 
[V:1] z8 | 
[V:2] z8 | 
[V:3] A3BcAc2- | 
[V:4] C,4C,4- | 
[V:1] z8 | 
[V:2] z8 | 
[V:3] c2BAG4 | 
[V:4] C,2D,2E,4 | 
[V:1] z8 | 
[V:2] z8 | 
[V:3] F3GAFA2- | 
[V:4] D,3E,F,D,F,2- | 
[V:1] z4C4 | 
[V:2] z8 | 
[V:3] A2GFE4 | 
[V:4] F,2E,D,C,4 | 
[V:1] D4D2F2- | 
[V:2] z8 | 
[V:3] D8 | 
[V:4] B,,3C,D,B,,D,2- | 
[V:1] F2G2A4 | 
[V:2] z4F4 | 
[V:3] z8 | 
[V:4] D,2C,B,,A,,4 | 
[V:1] D2d2B2d2- | 
[V:2] G4G2B2- | 
[V:3] z8 | 
[V:4] G,,8 | 
[V:1] d2cBA4 | 
[V:2] B2c2d4 | 
[V:3] z8 | 
[V:4] z8 | 
[V:1] G2EFGABc | 
[V:2] G2g2e2g2- | 
[V:3] z8 | 
[V:4] z8 | 
[V:1] d2c3=B=B2 | 
[V:2] g2fed4 | 
[V:3] z8 | 
[V:4] z8 | 
[V:1] c4c2A2- | 
[V:2] c2ABcdef | 
[V:3] z8 | 
[V:4] z8 | 
[V:1] A2GFG4 | 
[V:2] g2f3ee2 | 
[V:3] z4C4 | 
[V:4] z8 | 
[V:1] F2D2F3G | 
[V:2] f4f2d2- | 
[V:3] D4D2F2- | 
[V:4] z8 | 
[V:1] A4z2A2 | 
[V:2] d2cBc4 | 
[V:3] F2G2A4 | 
[V:4] z4F,,4 | 
[V:1] B2d3cB2- | 
[V:2] B2G2B3c | 
[V:3] D2d2B2d2- | 
[V:4] G,,4G,,2B,,2- | 
[V:1] B2AG^F2GF | 
[V:2] d4z2d2- | 
[V:3] d2cBA4 | 
[V:4] B,,2C,2D,4 | 
[V:1] G8 ||  
[V:2] d8 ||  
[V:3] G8 ||  
[V:4] G,,8 ||  
[V:1]  [K:F] [K:clef=treble][M:3/1]z12 | 
[V:2]  [K:F] [K:clef=treble-8][M:3/1]z12 | 
[V:3]  [K:F] [K:clef=treble-8][M:3/1]D8D4 | 
[V:4]  [K:F] [K:clef=bass][M:3/1]z12 | 
[V:1] z12 | 
[V:2] z12 | 
[V:3] E4F6G2 | 
[V:4] z12 | 
[V:1] z12 | 
[V:2] z12 | 
[V:3] G8E4 | 
[V:4] G,,8G,,4 | 
[V:1] z12 | 
[V:2] z12 | 
[V:3] F4G6A2 | 
[V:4] A,,4B,,6C,2 | 
[V:1] z12 | 
[V:2] z12 | 
[V:3] A8F4 | 
[V:4] C,8A,,4 | 
[V:1] z12 | 
[V:2] z12 | 
[V:3] G4E6D2 | 
[V:4] B,,4C,6D,2 | 
[V:1] D8D4 | 
[V:2] z12 | 
[V:3] D12 | 
[V:4] D,8B,,4 | 
[V:1] E4F6G2 | 
[V:2] z12 | 
[V:3] z12 | 
[V:4] C,4A,,6G,,2 | 
[V:1] G8E4 | 
[V:2] G8G4 | 
[V:3] z12 | 
[V:4] G,,12 | 
[V:1] F4G6A2 | 
[V:2] A4B6c2 | 
[V:3] z12 | 
[V:4] z12 | 
[V:1] A8F4 | 
[V:2] c8A4 | 
[V:3] z12 | 
[V:4] z12 | 
[V:1] G4E6D2 | 
[V:2] B4c6d2 | 
[V:3] z4z4A4 | 
[V:4] z12 | 
[V:1] D12 | 
[V:2] d8B4 | 
[V:3] B4G8 | 
[V:4] z12 | 
[V:1] z12 | 
[V:2] c4A6G2 | 
[V:3] A8z4 | 
[V:4] z4z4D,4 | 
[V:1] z12 | 
[V:2] G12 | 
[V:3] z12 | 
[V:4] E,4C,8 | 
[V:1] z12 | 
[V:2] z12 | 
[V:3] A4A4A4 | 
[V:4] D,8z4 | 
[V:1] z12 | 
[V:2] z12 | 
[V:3] D6E2F2D2 | 
[V:4] z12 | 
[V:1] z4z4A4 | 
[V:2] z12 | 
[V:3] A8A4 | 
[V:4] D,4D,4D,4 | 
[V:1] B4G8 | 
[V:2] z12 | 
[V:3] G4B8 | 
[V:4] G,,6A,,2B,,2G,,2 | 
[V:1] A8z4 | 
[V:2] z4z4d4 | 
[V:3] A8z4 | 
[V:4] D,8D,4 | 
[V:1] z12 | 
[V:2] e4c8 | 
[V:3] z12 | 
[V:4] C,4E,8 | 
[V:1] A4A4A4 | 
[V:2] d8z4 | 
[V:3] A4A4c4 | 
[V:4] D,8z4 | 
[V:1] D6E2F2D2 | 
[V:2] z12 | 
[V:3] d8d4 | 
[V:4] z12 | 
[V:1] A8A4 | 
[V:2] d4d4d4 | 
[V:3] A8A4 | 
[V:4] D,4D,4F,4 | 
[V:1] G4B8 | 
[V:2] G6A2B2G2 | 
[V:3] B4G8 | 
[V:4] G,8G,4 | 
[V:1] A8z4 | 
[V:2] d8d4 | 
[V:3] A8z4 | 
[V:4] D,8D,4 | 
[V:1] z12 | 
[V:2] c4e8 | 
[V:3] z12 | 
[V:4] E,4C,8 | 
[V:1] A4A4c4 | 
[V:2] d8z4 | 
[V:3] A4A4A4 | 
[V:4] D,8z4 | 
[V:1] d8d4 | 
[V:2] z12 | 
[V:3] D6E2F2D2 | 
[V:4] z12 | 
[V:1] A8A4 | 
[V:2] d4d4f4 | 
[V:3] A8A4 | 
[V:4] D,4D,4D,4 | 
[V:1] B4G8 | 
[V:2] g8g4 | 
[V:3] G4B8 | 
[V:4] G,,6A,,2B,,2G,,2 | 
[V:1] A8z4 | 
[V:2] d8d4 | 
[V:3] A12 | 
[V:4] D,8D,4 | 
[V:1] z12 | 
[V:2] e4c8 | 
[V:3] z12 | 
[V:4] C,4E,8 | 
[V:1] A4A4A4 | 
[V:2] d8z4 | 
[V:3] z12 | 
[V:4] D,12 | 
[V:1] D6E2F2D2 | 
[V:2] z12 | 
[V:3] z12 | 
[V:4] z12 | 
[V:1] A8A4 | 
[V:2] d4d4d4 | 
[V:3] z12 | 
[V:4] z12 | 
[V:1] G4B8 | 
[V:2] G6A2B2G2 | 
[V:3] z12 | 
[V:4] z12 | 
[V:1] A12 | 
[V:2] d8d4 | 
[V:3] D6E2F2G2 | 
[V:4] z12 | 
[V:1] z12 | 
[V:2] c4e8 | 
[V:3] A6B2c2A2 | 
[V:4] z12 | 
[V:1] z12 | 
[V:2] d12 | 
[V:3] B6A2G4 | 
[V:4] G,,6A,,2B,,2C,2 | 
[V:1] z12 | 
[V:2] z12 | 
[V:3] F4z4z4 | 
[V:4] D,6E,2F,2D,2 | 
[V:1] z12 | 
[V:2] z12 | 
[V:3] c6B2A4 | 
[V:4] _E,6D,2C,4 | 
[V:1] z12 | 
[V:2] z12 | 
[V:3] G2G4F2E4 | 
[V:4] B,,4z4z4 | 
[V:1] D6E2F2G2 | 
[V:2] z12 | 
[V:3] D4d6B2 | 
[V:4] F,6E,2D,4 | 
[V:1] A6B2c2A2 | 
[V:2] z12 | 
[V:3] c2A4G2E2^F2 | 
[V:4] C,2C,4B,,2A,,4 | 
[V:1] B6A2G4 | 
[V:2] G6A2B2c2 | 
[V:3] G12 | 
[V:4] G,,4G,6E,2 | 
[V:1] F4z4z4 | 
[V:2] d6e2f2d2 | 
[V:3] z12 | 
[V:4] F,2D,4C,2A,,2B,,2 | 
[V:1] c6B2A4 | 
[V:2] _e6d2c4 | 
[V:3] z12 | 
[V:4] C,12 | 
[V:1] G2G4F2E4 | 
[V:2] B4z4z4 | 
[V:3] G4E2F2G2A2 | 
[V:4] z12 | 
[V:1] D4d6B2 | 
[V:2] f6e2d4 | 
[V:3] B3AF2G2D4 | 
[V:4] z12 | 
[V:1] c2A4G2E2F2 | 
[V:2] c2c4B2A4 | 
[V:3] z2E2F2G2A2F2 | 
[V:4] C,4A,,2B,,2C,2D,2 | 
[V:1] G12- | 
[V:2] G12- | 
[V:3] B6A2G2F2 | 
[V:4] _E,3D,B,,2C,2G,,4- | 
[V:1] G12- | 
[V:2] G12- | 
[V:3] _E2D2_E4D4 | 
[V:4] G,,12- | 
[V:1] G12 |]  
[V:2] G12 |]  
[V:3] D12 |]  
[V:4] G,,12 |]  



